dist/icons/svgs/square-outline.svg

<svg xmlns="http://www.w3.org/2000/svg" width="24" height="24" fill="currentcolor" class="icon-square-outline" viewBox="0 0 24 24">
  <path d="M18.25 5.125H5.75C5.39844 5.125 5.125 5.4375 5.125 5.75V18.25C5.125 18.6016 5.39844 18.875 5.75 18.875H18.25C18.5625 18.875 18.875 18.6016 18.875 18.25V5.75C18.875 5.4375 18.5625 5.125 18.25 5.125ZM5.75 3.25H18.25C19.6172 3.25 20.75 4.38281 20.75 5.75V18.25C20.75 19.6562 19.6172 20.75 18.25 20.75H5.75C4.34375 20.75 3.25 19.6562 3.25 18.25V5.75C3.25 4.38281 4.34375 3.25 5.75 3.25Z"/>
</svg>

<svg xmlns="http://www.w3.org/2000/svg" width="24" height="24" fill="currentColor" class="icon-square-outline" viewBox="0 0 24 24">
  <path d="M18.25 5.125H5.75a.64.64 0 0 0-.625.625v12.5c0 .352.273.625.625.625h12.5a.64.64 0 0 0 .625-.625V5.75c0-.312-.312-.625-.625-.625M5.75 3.25h12.5c1.367 0 2.5 1.133 2.5 2.5v12.5c0 1.406-1.133 2.5-2.5 2.5H5.75a2.47 2.47 0 0 1-2.5-2.5V5.75c0-1.367 1.094-2.5 2.5-2.5"/>
</svg>
